!!!COM: Schubert, Franz
!!!CNT: Deutscher
!!!TXO: Deutsch
!!!OTL: "Liebesbotschaft"
!!!OPR: Schwanengesang
!!!LYR: Rellstab, Ludwig
!!!ONM: No. 1
!!!ODT: 1827/
!!NB: Vocal melody only encoded.
**kern	**silbe
*clefG2	*
*k[f#]	*
*M2/4	*
*MM[langsam]	*
=6	=6
{8b	{Rau-
16cc	-schen-
16cc	-des
8dd	Ba2ch-
16b	-lein,
16b	so
=7	=7
8ee	sil-
16dd	-bern
16dd	und
8cc}	hell,}
8r	.
=9	=9
{8a	{eilst
16b	zur
16b	Ge-
8cc	-lieb-
16a	-ten
16a	so
=10	=10
8dd	mun-
16cc	-ter
16cc	und
8b}	schnell?}
8r	.
=12	=12
{8b	{Ach!
16b	trau-
16b	-tes
8ee	Ba2ch-
16b	-lein,
16b	mein
=13	=13
8cc	Bo-
16b	-te
16a	sei
4b}	du;}
=15	=15
{8b	{brin-
16g	-ge
16f#	die
8e	Gru2-
16gg	-sse
16gg	des
=16	=16
8ff#	Fer-
16dd#	-nen
16dd#	ihr
4ee}	zu.}
=18	=18
{8ee	{All'
16cc	ih-
16cc	-re
8g	Blu-
16e	-men
16fn	im
=19	=19
16g	Gar-
16dd	|
16dd	-ten
16b	gep-
8cc}	-flegt,}
8r	.
=20	=20
{8ee	{die
16cc	sie
16cc	so
8g	lieb-
16e	-lich
16fn	am
=21	=21
16g	Bu-
16dd	|
16dd	-sen
16b	|
8cc}	tra2gt,}
8r	.
=22	=22
{8cc	{und
16b-	ih-
16b-	-re
16a	Ro-
16ee	|
16ee	-sen
16cc#	in
=23	=23
8dd	pur-
16ee	-pur-
16ee	-ner
8.ffn	Gluth,
16ee}	|}
=24	=24
{16dd	{Ba2ch-
16cc	|
16b	-lein,
16a	er-
16a	-qui-
16g	|
16g	-cke
16g	mit
=25	=25
16g	ku2h-
16dd	|
16dd	-len-
16b	-der
8cc}	Fluth,}
8r	.
=26	=26
{8ee	{und
16dd	ih-
16dd	-re
16cc#	Ro-
16gg	|
16gg	-sen
16cc#	in
=27	=27
8dd	pur-
16ee	-pur-
16ee	-ner
8.ffn	Gluth,
16ee}	|}
=28	=28
{16dd	{Ba2ch-
16cc	|
16b	-lein,
16a	er-
16a	qui-
16g	|
16g	-cke
16g	mit
=29	=29
16g	ku2h-
16dd	|
16dd	-len-
16b	-der
4cc}	Fluth.}
=32	=32
{4cc	{Wenn
8cc	sie
8cc	am
=33	=33
8b	U-
8ee	|
8.b	-fer,
16b	in
=34	=34
4b	Tra2u-
8b	-me
8cc#	ver-
=35	=35
4.dd}	-senkt,}
8r	.
=36	=36
{4a	{mei-
8a	-ner
8a	ge-
=37	=37
(8g	-den-
8cc)	|
8.g	-kend,
16g	das
=38	=38
4.g	Ko2pf-
8a	-chen
=39	=39
4.b}	ha2ngt:}
8r	.
=40	=40
{8dd#	{tro2-
16cc#	-ste
16b	die
8b	Su2-
16f#	-sse
16b	mit
=41	=41
16a#	freund-
16g#	|
16cc#	-li-
16b#	-chem
16dd#	Blick,
16cc#}	|}
8r	.
=42	=42
{8cc#	{denn
16cc#	der
16dd#	Ge-
8ee	-lieb-
16dd#	-te
16cc#	|
=43	=43
8b	kehrt
16.cc#	bald
32f#	zu-
4dd#}	-ru2ck,}
=44	=44
{8dd#	{tro2-
16cc#	-ste
16b	die
8a#	Su2-
16g#	-sse
16b	mit
=45	=45
8dd#	freund-
16cc#	-li-
16b	-chem
8a#	Blick,
16g#}	|}
16r	.
=46	=46
{8cc#	{denn
16.dd#	der
32dd#	Ge-
16ff#	-lieb-
16ee	|
16dd#	-te
16cc#	|
=47	=47
8b	kehrt
4dd#	bald
8cc#	zu-
=48	=48
4b}	-ru2ck.}
4r	.
=52	=52
{8b	{Neigt
16cc	sich
16cc	die
8dd	Son-
16b	-ne
16b	mit
=53	=53
8ee	ro2th-
16dd	-li-
16dd	-chem
8cc}	Schein,}
8r	.
=55	=55
{8a	{wie-
16b	-ge
16b	das
8cc	Lieb-
16a	-chen
16a	in
=56	=56
8.dd	Schlum-
16cc	-mer
8b}	ein;}
8r	.
=58	=58
{8b	{Rau-
16b	-sche
16b	sie
8ee	mur-
16b	-melnd
16b	in
=59	=59
16dd	su2-
16cc	|
(ccq	-sse
16b)	|
16a	|
4b}	Ruh,}
=61	=61
{8b	{flu2-
16g	-st're
16f#	ihr
8e	Tra2u-
16gg	-me
16gg	der
=62	=62
8ff#	Lie-
8dd#	-be
4ee}	zu,}
=64	=64
{4ee	{flu2-
8dd	-st're
8cc	ihr
=65	=65
8b	Tra2u-
8gg	|
8ee	-me
8cc	der
=66	=66
[2b	Lie-
=67	=67
8.b]	|
16a	|
8.a	-be
16g	|
=68	=68
4.g}	zu.}
8r	.
*-	*-
